X: 13401
T: Flint Hills Ride
R: jig
M: 6/8
K: Aminor
|:A2 A c2 A|A2 e d2 d|A2 A c2 A|Age dcG|
A2 A c2 A|A2 e dfa|baf edB|cBG A3:|
|:E2 A B2 B|cBA G2 G|ABc e2 e|ged c2 B|
cde ^f2 g|a3 a3|age dcG|AcB A3:|

